icons/svg/seamark/harbour_container.svg

<?xml version="1.0" encoding="UTF-8" standalone="no"?>
<svg
   xmlns:dc="http://purl.org/dc/elements/1.1/"
   xmlns:cc="http://creativecommons.org/ns#"
   xmlns:rdf="http://www.w3.org/1999/02/22-rdf-syntax-ns#"
   xmlns:svg="http://www.w3.org/2000/svg"
   xmlns="http://www.w3.org/2000/svg"
   xmlns:sodipodi="http://sodipodi.sourceforge.net/DTD/sodipodi-0.dtd"
   xmlns:inkscape="http://www.inkscape.org/namespaces/inkscape"
   width="580"
   height="580"
   id="svg2"
   version="1.1"
   inkscape:version="0.48.4 r9939"
   sodipodi:docname="harbour_container.svg">
  <defs
     id="defs13">
    <inkscape:path-effect
       effect="gears"
       id="path-effect3774"
       is_visible="true"
       teeth="6"
       phi="-1.2" />
    <inkscape:path-effect
       effect="bend_path"
       id="path-effect3772"
       is_visible="false"
       bendpath="m 95.790098,316.51174 c 144.429032,-206.42506 223.313032,-11.7428 339.548092,0"
       prop_scale="1.19"
       scale_y_rel="false"
       vertical="false"
       bendpath-nodetypes="cc" />
  </defs>
  <sodipodi:namedview
     pagecolor="#ffffff"
     bordercolor="#666666"
     borderopacity="1"
     objecttolerance="10"
     gridtolerance="10"
     guidetolerance="10"
     inkscape:pageopacity="0"
     inkscape:pageshadow="2"
     inkscape:window-width="1920"
     inkscape:window-height="1004"
     id="namedview11"
     showgrid="false"
     inkscape:zoom="0.40689655"
     inkscape:cx="616.00536"
     inkscape:cy="319.34435"
     inkscape:window-x="1680"
     inkscape:window-y="0"
     inkscape:window-maximized="1"
     inkscape:current-layer="svg2" />
  <metadata
     id="metadata2975">image/svg+xmlen<rdf:RDF>
  <cc:Work
     rdf:about="">
    <dc:format>image/svg+xml</dc:format>
    <dc:type
       rdf:resource="http://purl.org/dc/dcmitype/StillImage" />
    <dc:title />
  </cc:Work>
</rdf:RDF>
</metadata>
  <path
     d="m 124.76563,129.45312 0,42.8125 -42.81251,0 0,107.03125 107,0 0,-42.8125 21.40625,-21.40625 0,-42.8125 -64.21875,0 0,-42.8125 z m 149.81249,79.03125 0,70.8125 64.21875,0 0,-70.8125 z m 85.625,0 0,70.8125 64.21875,0 0,-70.8125 z m -278.24999,92.21875 0,34.25 c 0,19.26468 6.42239,36.39137 17.125,51.375 l 47.06249,64.21875 224.78125,0 c 34.24833,0 74.90724,-29.97021 96.3125,-59.9375 21.40517,-29.96728 42.8125,-70.64157 42.8125,-89.90625 z m 321.06249,42.8125 42.8125,0 0,21.40625 -42.8125,0 z"
     id="polygon3"
     style="color:#000000;fill:#930093;fill-opacity:1;fill-rule:nonzero;stroke:none;stroke-width:1;marker:none;visibility:visible;display:inline;overflow:visible;enable-background:accumulate"
     inkscape:connector-curvature="0"
     sodipodi:nodetypes="ccccccccccccccccccccccsccssccccccc" />
</svg>

<svg width="580" height="580" viewBox="0 0 580 580" fill="none" xmlns="http://www.w3.org/2000/svg">
<path d="M124.766 129.453V172.266H81.9531V279.297H188.953V236.484L210.359 215.078V172.266H146.141V129.453H124.766ZM274.578 208.484V279.297H338.797V208.484H274.578ZM360.203 208.484V279.297H424.422V208.484H360.203ZM81.9531 300.703V334.953C81.9531 354.218 88.3755 371.344 99.0781 386.328L146.141 450.547H370.922C405.17 450.547 445.829 420.577 467.234 390.609C488.64 360.642 510.047 319.968 510.047 300.703H81.9531ZM403.016 343.516H445.828V364.922H403.016V343.516Z" fill="#930093"/>
</svg>
